static/assets/img/icons/theme/weather/cloud-2.svg

<svg height="24" viewBox="0 0 24 24" width="24" xmlns="http://www.w3.org/2000/svg"><g fill="none" fill-rule="evenodd"><path d="m0 0h24v24h-24z" opacity="0"/><g fill="#000"><circle cx="16" cy="10" opacity=".3" r="5"/><path d="m5.74714567 18.0425758c-1.65304205-1.0685402-2.74714567-2.9277872-2.74714567-5.0425758 0-3.3137085 2.6862915-6 6-6 2.7957591 0 5.1449096 1.91215918 5.8109738 4.5h2.4390262c2.0710678 0 3.75 1.6789322 3.75 3.75s-1.6789322 3.75-3.75 3.75h-9c-.96182105 0-1.83906822-.3621038-2.50285433-.9574242z"/></g></g></svg>

<svg width="24px" height="24px" viewBox="0 0 24 24" version="1.1" xmlns="http://www.w3.org/2000/svg" xmlns:xlink="http://www.w3.org/1999/xlink">
    <title>Icon For Cloud#2</title>
    <g stroke="none" stroke-width="1" fill="none" fill-rule="evenodd">
        <polygon points="0 0 24 0 24 24 0 24" opacity="0"></polygon>
        <circle fill="#000000" opacity="0.3" cx="16" cy="10" r="5"></circle>
        <path d="M5.74714567,18.0425758 C4.09410362,16.9740356 3,15.1147886 3,13 C3,9.6862915 5.6862915,7 9,7 C11.7957591,7 14.1449096,8.91215918 14.8109738,11.5 L17.25,11.5 C19.3210678,11.5 21,13.1789322 21,15.25 C21,17.3210678 19.3210678,19 17.25,19 L8.25,19 C7.28817895,19 6.41093178,18.6378962 5.74714567,18.0425758 Z" fill="#000000"></path>
    </g>
</svg>
